app/dist/common/images/aeon.svg

<svg height="18" width="18" xmlns="http://www.w3.org/2000/svg" xmlns:xlink="http://www.w3.org/1999/xlink"><linearGradient id="a" gradientUnits="userSpaceOnUse" x1="7.61" x2="7.61" y1="8.52" y2="11.35"><stop offset="0" stop-color="#fff"/><stop offset=".32" stop-color="#d58bb9"/><stop offset=".6" stop-color="#bd4891"/></linearGradient><path d="m0 0h18v18h-18z" fill="#b0237b"/><path d="m2 11h.73l2.77-3.92v3.92h2.5v-.57h-2v-2.86h2v-.57h-3.23zm13.42-4v2.86l-2.14-2.86h-.49v4h.59v-2.86l2.14 2.86h.48v-4zm-7.29 2c0-1.12.95-2 2.18-2s2.19.88 2.19 2-.96 2-2.2 2c-1.22 0-2.17-.88-2.17-2zm2.18 1.43c.89 0 1.6-.64 1.6-1.43s-.71-1.43-1.6-1.43c-.88 0-1.6.64-1.6 1.43s.72 1.43 1.6 1.43z" fill="#fff"/><path d="m8.97 8.56c.77.07.93.26.9.35-.04.24-1.03.44-2.3.44-1.29 0-2.32-.2-2.32-.44 0-.23 1.19-.44 2.55-.44 0 0 .1 0 .1-.04 0-.05-.1-.04-.1-.04-1.93 0-2.96.28-2.96.66 0 .36 1.22.65 2.73.65 1.5 0 2.72-.3 2.72-.65 0-.2-.32-.48-1.33-.57 0 0-.07-.01-.08.03 0 .05.1.05.1.05z" fill="url(#a)"/></svg>

<!-- by TradingView --><svg xmlns="http://www.w3.org/2000/svg" width="18" height="18"><path fill="#B0237B" d="M0 0h18v18H0z"/><path d="M2 11h.73L5.5 7.08V11H8v-.57H6V7.57h2V7H4.77L2 11zm13.42-4v2.86L13.28 7h-.49v4h.59V8.14L15.52 11H16V7h-.58zM8.13 9c0-1.12.95-2 2.18-2 1.23 0 2.19.88 2.19 2s-.96 2-2.2 2c-1.22 0-2.17-.88-2.17-2zm2.18 1.43c.89 0 1.6-.64 1.6-1.43 0-.79-.71-1.43-1.6-1.43-.88 0-1.6.64-1.6 1.43 0 .79.72 1.43 1.6 1.43z" fill="#fff"/><path d="M8.97 8.56c.77.07.93.26.9.35-.04.24-1.03.44-2.3.44-1.29 0-2.32-.2-2.32-.44 0-.23 1.19-.44 2.55-.44 0 0 .1 0 .1-.04 0-.05-.1-.04-.1-.04-1.93 0-2.96.28-2.96.66 0 .36 1.22.65 2.73.65 1.5 0 2.72-.3 2.72-.65 0-.2-.32-.48-1.33-.57 0 0-.07-.01-.08.03 0 .05.1.05.1.05z" fill="url(#aly1x5tui)"/><defs><linearGradient id="aly1x5tui" x1="7.61" y1="8.52" x2="7.61" y2="11.35" gradientUnits="userSpaceOnUse"><stop stop-color="#fff"/><stop offset=".32" stop-color="#D58BB9"/><stop offset=".6" stop-color="#BD4891"/></linearGradient></defs></svg>
